X:1
T:Concerto a flauto dolce, au luth
T:Concerto a flauto dolce, au luth
T:3. Siciliana
T:Ernst Gottlieb Baron (1696 - 1760)
T:Adaptation from the original score for Baroque lute and treble recorder
T:w ww.gardane.info • 27-12-2019
T:w ww.gardane.info • 27-12-2019
T:w ww.gardane.info • 27-12-2019
C:Ernst Gottlieb Baron (1696 - 1760)
Z:Adaptation from the original score for Baroque lute and treble recorder
Z:w ww.gardane.info • 27-12-2019
%%score 1 2 3 4
L:1/8
Q:3/8=60
M:6/8
K:F
V:1 treble nm="Alt-blokfluit" snm="A. Blf."
V:2 treble nm="Alt-blokfluit" snm="A. Blf."
V:3 bass+8 nm="Bas-blokfluit" snm="Bs. Blf."
V:4 bass nm="Viola da gamba" snm="Vla. d. g."
V:1
 a | f>ed b/a/g/f/e | ^c>de A2 a | a/g/^f/e/d c_ed | Bd/c/B/A/ G2 e/f/ | g>ag gba | f>ga f2 z | %7
 z f/e/f z ff | z ff f>ga | f>ge f>ge | f>ge f>ge | f>cA F2 :: z | z6 | z3 z z g | f>ef f>ag | %16
 e>fg c>de | e>fd c>de | e>fd c>de | e>dc =B>AG | A^c/d/e g>ab | a3 a3- | a3 a3 | z3 ag/f/g | %24
 z3 gf/e/f | z3 _eg/f/e | z3 _eg/f/e | =e a2 agf | aba e>d^c | d>fa d'2 :| %30
V:2
 d | d3 e3 | a2 a a2 a | a/g/^f/e/d c_ed | d2 d d2 G/A/ | B>cB Bdc | A>Bc A2 c | %7
 d/f/e/f/d/f/ c/f/e/f/c/f/ | B/f/e/f/B/f/ A>Bc | A>BG z z2 | z6 | A3 A2 :: c | fga agf | %14
 gg/f/e/d/ c z2 | a2 z g2 z | e2 e e2 g | g>af e>fg | g>af e>fg | g>fe d>c=B | ^c2 c cec | %21
 df/e/f/d/ eAe | d2 z z z a | a/g/^f/e/d/c/ B z g | g/f/e/d/c/B/ A z f | _eg/f/e eBe | %26
 _eg/f/e eBe | ^cde fed | fgf g>fe | f3 z2 :| %30
V:3
 A,, | A,,3 B,,3 | E,2 E, E,2 D, | D,3 z z2 | B,,2 B,, B,,2 z | z6 | z3 F,2 A,, | F,3 z2 z | z6 | %9
 z3 A,>B,C | A,>B,G, A,>B,G, | F,3 z z :: z | z6 | z6 | F,2 z F,2 z | G,,2 G,, G,,2 z | z6 | z6 | %19
 z6 | z6 | z6 | z F,/E,/F,/D,/ E,A,, z | z3 z B,/A,/B,/G,/ | B,3 z A,/G,/A, | z6 | z6 | z6 | A,,6 | %29
 A,,3- A,,2 :| %30
V:4
 D, | D,3 G,3 | G,2 G, G,2 F, | ^F,3 F,2 D, | G,2 G, G,3 | C,3 C,3 | F,3 F,2 A, | B,3 A,3 | %8
 G,3 F,3 | F,2 C, F,3 | F,2 C, F,2 C, | F,3 F,,2 :: z | A,,3 F,3 | E,3 E,D,C, | C,2 C, =B,,2 G, | %16
 C,2 C, C,3 | C,2 G, C,3 | C,2 G, C,3 | C,2 E, G,3 | G,2 G, G,3 | F,2 D, ^C,3 | F,2 D, A,,2 G, | %23
 ^F,3 G,3 | E,2 C, F,3 | G,3 G,3 | G,3 G,3 | G,F,^C, D,2 B,, | A,,3 A,,3 | D,3 D,,2 :| %30

